X: 4043
T: Blarney Pilgrim, The
R: jig
M: 6/8
K: Dmixolydian
|:DED DEG|A2A ABc|BAG AGE|GEA GED|
DED DEG|A2A ABc|BAG AGE|GED D3:|
ded dBG|AGA BGE|ded dBG|AGA GAB|
g2e dBG|AGA BGE|B2G AGE|GAG G3:|
ADD BDD|ADD ABc|BAG AGE|GEA GED|
ADD BDD|ADD ABc|BAG AGE|GED D3:|

